src/Widgets/ButtonWidget/thumbnail.svg

<svg viewBox="0 0 150 100" fill="none" xmlns="http://www.w3.org/2000/svg">
<g id="button">
<g id="Group" opacity="0.5">
<path id="Vector" d="M119.877 78.9466C119.701 78.9466 119.539 78.8731 119.421 78.7555L112.276 71.6101L109.394 76.5795C109.277 76.7853 109.041 76.9177 108.791 76.903C108.542 76.8883 108.336 76.7265 108.247 76.506L100.044 55.8786C99.9554 55.6433 99.9995 55.364 100.191 55.1876C100.367 55.0111 100.646 54.9523 100.882 55.0405L121.509 63.2445C121.744 63.3327 121.891 63.5532 121.906 63.7884C121.921 64.0384 121.803 64.2736 121.583 64.3912L116.613 67.2729L123.759 74.4183C123.876 74.5359 123.95 74.6976 123.95 74.874C123.95 75.0505 123.876 75.2122 123.759 75.3298C123.729 75.3592 120.318 78.7702 120.318 78.7702C120.201 78.8878 120.039 78.9613 119.862 78.9613L119.877 78.9466ZM112.144 69.934C112.305 69.934 112.482 70.0076 112.599 70.1252L119.877 77.4028C120.539 76.7412 121.744 75.5356 122.406 74.874L115.128 67.5964C114.981 67.4493 114.922 67.2582 114.952 67.0671C114.981 66.8759 115.099 66.6995 115.261 66.5966L119.804 63.9502L101.778 56.7901L108.939 74.8152L111.585 70.2722C111.688 70.0958 111.864 69.9781 112.055 69.9634C112.085 69.9634 112.114 69.9634 112.144 69.9634V69.934Z" fill="#AAAAAA"/>
</g>
<g id="Ebene_1" clip-path="url(#clip0_5_378)">
<g id="Group_2" opacity="0.75">
<path id="Vector_2" d="M124.8 40H26C24.8954 40 24 40.8954 24 42V57.92C24 59.0246 24.8954 59.92 26 59.92H124.8C125.905 59.92 126.8 59.0246 126.8 57.92V42C126.8 40.8954 125.905 40 124.8 40Z" fill="#AAAAAA"/>
<path id="Vector_3" d="M124.8 41C125.35 41 125.8 41.45 125.8 42V57.92C125.8 58.47 125.35 58.92 124.8 58.92H26C25.45 58.92 25 58.47 25 57.92V42C25 41.45 25.45 41 26 41H124.8ZM124.8 39H26C24.34 39 23 40.34 23 42V57.92C23 59.58 24.34 60.92 26 60.92H124.8C126.46 60.92 127.8 59.58 127.8 57.92V42C127.8 40.34 126.46 39 124.8 39Z" fill="#AAAAAA"/>
</g>
<path id="Button" d="M55.84 55V46.36H59.296C59.912 46.36 60.41 46.484 60.79 46.732C61.17 46.976 61.448 47.284 61.624 47.656C61.8 48.028 61.888 48.404 61.888 48.784C61.888 49.268 61.778 49.67 61.558 49.99C61.342 50.31 61.044 50.524 60.664 50.632V50.332C61.204 50.444 61.608 50.694 61.876 51.082C62.148 51.47 62.284 51.904 62.284 52.384C62.284 52.9 62.188 53.354 61.996 53.746C61.808 54.138 61.52 54.446 61.132 54.67C60.744 54.89 60.256 55 59.668 55H55.84ZM57.496 53.464H59.5C59.72 53.464 59.916 53.418 60.088 53.326C60.26 53.23 60.394 53.098 60.49 52.93C60.59 52.758 60.64 52.556 60.64 52.324C60.64 52.12 60.598 51.938 60.514 51.778C60.43 51.618 60.302 51.492 60.13 51.4C59.962 51.304 59.752 51.256 59.5 51.256H57.496V53.464ZM57.496 49.732H59.272C59.456 49.732 59.62 49.7 59.764 49.636C59.908 49.572 60.022 49.474 60.106 49.342C60.19 49.206 60.232 49.032 60.232 48.82C60.232 48.556 60.15 48.334 59.986 48.154C59.822 47.974 59.584 47.884 59.272 47.884H57.496V49.732ZM65.8926 55.192C65.3846 55.192 64.9706 55.106 64.6506 54.934C64.3306 54.762 64.0806 54.544 63.9006 54.28C63.7246 54.016 63.5986 53.742 63.5226 53.458C63.4466 53.17 63.4006 52.908 63.3846 52.672C63.3686 52.436 63.3606 52.264 63.3606 52.156V48.52H65.0166V51.58C65.0166 51.728 65.0246 51.918 65.0406 52.15C65.0566 52.378 65.1066 52.608 65.1906 52.84C65.2746 53.072 65.4106 53.266 65.5986 53.422C65.7906 53.578 66.0606 53.656 66.4086 53.656C66.5486 53.656 66.6986 53.634 66.8586 53.59C67.0186 53.546 67.1686 53.462 67.3086 53.338C67.4486 53.21 67.5626 53.024 67.6506 52.78C67.7426 52.532 67.7886 52.208 67.7886 51.808L68.7246 52.252C68.7246 52.764 68.6206 53.244 68.4126 53.692C68.2046 54.14 67.8906 54.502 67.4706 54.778C67.0546 55.054 66.5286 55.192 65.8926 55.192ZM67.9926 55V52.852H67.7886V48.52H69.4326V55H67.9926ZM74.9975 55C74.5495 55.084 74.1095 55.12 73.6775 55.108C73.2495 55.1 72.8655 55.026 72.5255 54.886C72.1895 54.742 71.9335 54.512 71.7575 54.196C71.5975 53.9 71.5135 53.6 71.5055 53.296C71.4975 52.988 71.4935 52.64 71.4935 52.252V46.72H73.1255V52.156C73.1255 52.408 73.1275 52.636 73.1315 52.84C73.1395 53.04 73.1815 53.2 73.2575 53.32C73.4015 53.548 73.6315 53.672 73.9475 53.692C74.2635 53.712 74.6135 53.696 74.9975 53.644V55ZM70.3895 49.78V48.52H74.9975V49.78H70.3895ZM79.6055 55C79.1575 55.084 78.7175 55.12 78.2855 55.108C77.8575 55.1 77.4735 55.026 77.1335 54.886C76.7975 54.742 76.5415 54.512 76.3655 54.196C76.2055 53.9 76.1215 53.6 76.1135 53.296C76.1055 52.988 76.1015 52.64 76.1015 52.252V46.72H77.7335V52.156C77.7335 52.408 77.7355 52.636 77.7395 52.84C77.7475 53.04 77.7895 53.2 77.8655 53.32C78.0095 53.548 78.2395 53.672 78.5555 53.692C78.8715 53.712 79.2215 53.696 79.6055 53.644V55ZM74.9975 49.78V48.52H79.6055V49.78H74.9975ZM83.963 55.18C83.311 55.18 82.739 55.034 82.247 54.742C81.755 54.45 81.371 54.048 81.095 53.536C80.823 53.02 80.687 52.428 80.687 51.76C80.687 51.084 80.827 50.49 81.107 49.978C81.387 49.462 81.773 49.06 82.265 48.772C82.757 48.484 83.323 48.34 83.963 48.34C84.615 48.34 85.187 48.486 85.679 48.778C86.175 49.07 86.561 49.474 86.837 49.99C87.113 50.502 87.251 51.092 87.251 51.76C87.251 52.432 87.111 53.026 86.831 53.542C86.555 54.054 86.169 54.456 85.673 54.748C85.181 55.036 84.611 55.18 83.963 55.18ZM83.963 53.656C84.487 53.656 84.877 53.48 85.133 53.128C85.393 52.772 85.523 52.316 85.523 51.76C85.523 51.184 85.391 50.724 85.127 50.38C84.867 50.036 84.479 49.864 83.963 49.864C83.607 49.864 83.315 49.944 83.087 50.104C82.859 50.264 82.689 50.486 82.577 50.77C82.469 51.054 82.415 51.384 82.415 51.76C82.415 52.34 82.545 52.802 82.805 53.146C83.069 53.486 83.455 53.656 83.963 53.656ZM92.9865 55V51.94C92.9865 51.792 92.9785 51.604 92.9625 51.376C92.9465 51.144 92.8965 50.912 92.8125 50.68C92.7285 50.448 92.5905 50.254 92.3985 50.098C92.2105 49.942 91.9425 49.864 91.5945 49.864C91.4545 49.864 91.3045 49.886 91.1445 49.93C90.9845 49.974 90.8345 50.06 90.6945 50.188C90.5545 50.312 90.4385 50.496 90.3465 50.74C90.2585 50.984 90.2145 51.308 90.2145 51.712L89.2785 51.268C89.2785 50.756 89.3825 50.276 89.5905 49.828C89.7985 49.38 90.1105 49.018 90.5265 48.742C90.9465 48.466 91.4745 48.328 92.1105 48.328C92.6185 48.328 93.0325 48.414 93.3525 48.586C93.6725 48.758 93.9205 48.976 94.0965 49.24C94.2765 49.504 94.4045 49.78 94.4805 50.068C94.5565 50.352 94.6025 50.612 94.6185 50.848C94.6345 51.084 94.6425 51.256 94.6425 51.364V55H92.9865ZM88.5585 55V48.52H90.0105V50.668H90.2145V55H88.5585Z" fill="white"/>
</g>
<g id="Group_3" opacity="0.75">
<path id="Vector_4" d="M112.188 70.0222C112.364 70.0222 112.526 70.0958 112.644 70.2134L120.039 77.6087C120.7 76.9471 121.935 75.7121 122.612 75.0358L115.216 67.6405C115.069 67.4934 115.011 67.3023 115.025 67.0965C115.04 66.8906 115.172 66.7142 115.349 66.6113L119.965 63.9208L101.661 56.6431L108.939 74.9475L111.629 70.331C111.732 70.1546 111.908 70.037 112.114 70.0075C112.144 70.0075 112.173 70.0075 112.202 70.0075L112.188 70.0222Z" fill="white" fill-opacity="0.75"/>
</g>
</g>
<defs>
<clipPath id="clip0_5_378">
<rect width="104.8" height="21.92" fill="white" transform="translate(23 39)"/>
</clipPath>
</defs>
</svg>

<svg xmlns="http://www.w3.org/2000/svg" fill="none" viewBox="0 0 150 100"><path fill="#AAA" d="M119.877 78.947a.65.65 0 0 1-.456-.192l-7.145-7.145-2.882 4.97a.66.66 0 0 1-.603.323.63.63 0 0 1-.544-.397l-8.203-20.627a.635.635 0 0 1 .147-.691.66.66 0 0 1 .691-.148l20.627 8.205a.62.62 0 0 1 .397.543.63.63 0 0 1-.323.603l-4.97 2.882 7.146 7.145a.65.65 0 0 1 .191.456.65.65 0 0 1-.191.456l-3.441 3.44a.64.64 0 0 1-.456.191zm-7.733-9.013a.67.67 0 0 1 .455.191l7.278 7.278 2.529-2.529-7.278-7.278a.6.6 0 0 1-.176-.529.7.7 0 0 1 .309-.47l4.543-2.647-18.026-7.16 7.161 18.025 2.646-4.543a.61.61 0 0 1 .47-.309h.089z" opacity=".5"/><g clip-path="url(#a)"><g fill="#AAA" opacity=".75"><path d="M124.8 40H26a2 2 0 0 0-2 2v15.92a2 2 0 0 0 2 2h98.8a2 2 0 0 0 2-2V42a2 2 0 0 0-2-2"/><path d="M124.8 41c.55 0 1 .45 1 1v15.92c0 .55-.45 1-1 1H26c-.55 0-1-.45-1-1V42c0-.55.45-1 1-1zm0-2H26c-1.66 0-3 1.34-3 3v15.92c0 1.66 1.34 3 3 3h98.8c1.66 0 3-1.34 3-3V42c0-1.66-1.34-3-3-3"/></g><path fill="#fff" d="M55.84 55v-8.64h3.456q.924 0 1.494.372.57.366.834.924t.264 1.128q0 .726-.33 1.206-.324.48-.894.642v-.3q.81.168 1.212.75.408.582.408 1.302 0 .774-.288 1.362-.282.588-.864.924-.582.33-1.464.33zm1.656-1.536H59.5q.33 0 .588-.138.258-.144.402-.396.15-.258.15-.606 0-.306-.126-.546a.9.9 0 0 0-.384-.378 1.25 1.25 0 0 0-.63-.144h-2.004zm0-3.732h1.776a1.2 1.2 0 0 0 .492-.096.77.77 0 0 0 .342-.294 1 1 0 0 0 .126-.522.95.95 0 0 0-.246-.666q-.246-.27-.714-.27h-1.776zm8.397 5.46q-.762 0-1.242-.258t-.75-.654a2.8 2.8 0 0 1-.378-.822 4 4 0 0 1-.138-.786 9 9 0 0 1-.024-.516V48.52h1.656v3.06q0 .222.024.57.024.342.15.69t.408.582q.288.234.81.234.21 0 .45-.066t.45-.252q.21-.192.342-.558.138-.372.138-.972l.936.444q0 .768-.312 1.44t-.942 1.086q-.624.414-1.578.414m2.1-.192v-2.148h-.204V48.52h1.644V55zm7.005 0q-.674.126-1.32.108a3.2 3.2 0 0 1-1.153-.222 1.56 1.56 0 0 1-.768-.69 2 2 0 0 1-.252-.9 41 41 0 0 1-.011-1.044V46.72h1.632v5.436q0 .378.005.684.012.3.126.48.216.342.69.372t1.05-.048zm-4.609-5.22v-1.26h4.609v1.26zM79.607 55q-.672.126-1.32.108a3.2 3.2 0 0 1-1.153-.222 1.56 1.56 0 0 1-.767-.69 2 2 0 0 1-.252-.9 41 41 0 0 1-.013-1.044V46.72h1.633v5.436q0 .378.006.684.012.3.126.48.216.342.69.372t1.05-.048zm-4.608-5.22v-1.26h4.608v1.26zm8.965 5.4q-.978 0-1.716-.438a3.07 3.07 0 0 1-1.152-1.206q-.408-.774-.408-1.776 0-1.014.42-1.782.42-.774 1.158-1.206t1.698-.432q.978 0 1.716.438.744.438 1.158 1.212.414.768.414 1.77 0 1.008-.42 1.782a3.05 3.05 0 0 1-1.158 1.206q-.738.432-1.71.432m0-1.524q.786 0 1.17-.528.39-.534.39-1.368 0-.864-.396-1.38-.39-.516-1.164-.516-.534 0-.876.24t-.51.666a2.8 2.8 0 0 0-.162.99q0 .87.39 1.386.396.51 1.158.51M92.987 55v-3.06q0-.222-.024-.564a2.6 2.6 0 0 0-.15-.696 1.3 1.3 0 0 0-.415-.582q-.282-.234-.803-.234-.21 0-.45.066t-.45.258q-.21.186-.348.552-.132.366-.132.972l-.937-.444q0-.768.313-1.44.312-.672.936-1.086.63-.414 1.584-.414.76 0 1.242.258.48.258.744.654.27.396.384.828.114.426.138.78t.023.516V55zm-4.428 0v-6.48h1.451v2.148h.204V55z"/></g><path fill="#fff" fill-opacity=".75" d="M112.188 70.022a.65.65 0 0 1 .456.191l7.395 7.396 2.573-2.573-7.396-7.395a.68.68 0 0 1-.191-.544.63.63 0 0 1 .324-.486l4.616-2.69-18.304-7.278 7.278 18.305 2.69-4.617a.67.67 0 0 1 .485-.324h.088z" opacity=".75"/><defs><clipPath id="a"><path fill="#fff" d="M23 39h104.8v21.92H23z"/></clipPath></defs></svg>
